!!!COM: Haydn, Franz Joseph
!!!OTL: String Quartet in E-flat Major
!!!OPS: Opus 50
!!!ONM: No. 3
!!!OMD: Allegro con brio
!!!OMV: 1
!!!SCT: H III:46
!!!SCA: Thematisch-bibliographisches Werkevererzeichnis (A. van Hoboken)
!!!YOR: Trautwein Edition
!!!ENC: Frances Bennion
!!!CDT: 1732/3/31/-1809/5/31/
!!!CNT: Oesterreich
!!!YEC: Copyright (c) 1994, 2000 Center for Computer Assisted Research in the Humanities
!!!YEM: Rights to all derivative editions reserved.
!!!YEM: Refer to licensing agreement for further details.
!!!YEN: United States of America
**kern	**kern	**kern	**kern
*k[b-e-a-]	*k[b-e-a-]	*k[b-e-a-]	*k[b-e-a-]
*E-:	*E-:	*E-:	*E-:
*clefF4	*clefC3	*clefG	*clefG
*M6/8	*M6/8	*M6/8	*M6/8
2r	2r	2r	2r
8r	8r	8r	8r
8r	8r	8r	8B-
=1	=1	=1	=1
4E-	4B-	4G 4e-	8e-
.	.	.	8e-
8r	8r	8r	16e-
.	.	.	32d
.	.	.	32e-
4BB-	4B-	4d	8f
.	.	.	8r
8r	8r	8r	8B-
=2	=2	=2	=2
4BB-	4B-	4d	8f
.	.	.	8f
8r	8r	8r	16f
.	.	.	32e-
.	.	.	32f
4E-	4B-	4e-	8g
.	.	.	8r
8r	8r	8r	16g
.	.	.	32f
.	.	.	32g
=3	=3	=3	=3
4F	4f	4d	8a-
.	.	.	8r
8r	8r	8r	16a-
.	.	.	32g
.	.	.	32a-
4G	4e-	4B-	8b-
.	.	.	8r
8r	8r	8r	8ee-
=4	=4	=4	=4
8G	8e-	8B-	8b-
8G	8e-	8B-	8b-
8G	8e-	8B-	8b-
8G	8e-	8B-	8b-
4r	4r	8r	8r
.	.	8e-	8ee-
=5	=5	=5	=5
2.r	2.r	8g	8gg
.	.	8b-	8bb-
.	.	8a-	8aa-
.	.	8f	8ff
.	.	8d	8dd
.	.	8B-	8b-
=6	=6	=6	=6
2r	2r	16A	16a
.	.	16B-	16b-
.	.	16c	16cc
.	.	16B-	16b-
.	.	16c	16cc
.	.	16d	16dd
.	.	8e-	8ee-
8r	8r	8e-	8ee-
8E-	8e-	8e-	8ee-
=7	=7	=7	=7
8G	8g	8g	8gg
8B-	8b-	8b-	8bb-
8A-	8a-	8a-	8aa-
8F	8f	8f	8ff
8D	8d	8d	8dd
8BB-	8B-	8B-	8b-
=8	=8	=8	=8
16AA	16A	16A	16a
16BB-	16B-	16B-	16b-
16C	16c	16c	16cc
16BB-	16B-	16B-	16b-
16C	16c	16c	16cc
16D	16d	16d	16dd
8E-	4e-	4e-	8ee-
8EE-	.	.	4r
8EE-	8E-	8e-	.
=9	=9	=9	=9
[2.EE-	4E-	16d	2r
.	.	16e-	.
.	.	16f	.
.	.	16e-	.
.	8D-	16f	.
.	.	16g	.
.	4C	8a-	.
.	.	8a-	8r
.	8r	8aa-	8ccc
=10	=10	=10	=10
2.EE-_	16A-	8dd	8ff
.	16G	.	.
.	16A-	8dd	8ff
.	16F	.	.
.	16B-	16dd	16ff
.	16A-	32cc	32ee-
.	.	32dd	32ff
.	8G	8ee-	8gg
.	8G	8ee-	8gg
.	8r	8e-	8r
=11	=11	=11	=11
2.EE-_	4E-	16d	2r
.	.	16e-	.
.	.	16f	.
.	.	16e-	.
.	8D-	16f	.
.	.	16g	.
.	4C	8a-	.
.	.	8a-	8r
.	8r	8aa-	8ccc
=12	=12	=12	=12
2EE-_	16A-	8dd	8ff
.	16G	.	.
.	16A-	8dd	8ff
.	16F	.	.
.	16B-	16dd	16ff
.	16A-	32cc	32ee-
.	.	32dd	32ff
.	8G	8ee-	8gg
8EE-]	8G	8ee-	8gg
8r	8r	8r	8bb-
=13	=13	=13	=13
2.r	4e-	4b-	8gg
.	.	.	8gg
.	8r	8r	8bb-
.	4d	4b-	8ff
.	.	.	8ff
.	8r	8r	8bb-
=14	=14	=14	=14
2.r	16F	16A	8ee-
.	16G	16B-	.
.	16A	16c	8ee-
.	16B-	16d	.
.	16c	16e-	16ee-
.	16A	16c	32dd
.	.	.	32ee-
.	8B-	8d	4dd
.	8B-	8f	.
.	8r	8r	16bb-
.	.	.	32aa
.	.	.	32bb-
=15	=15	=15	=15
8E-	8B-	8b-	8gg
8E-	8B-	8b-	8gg
8r	8r	8r	16bb-
.	.	.	32aa
.	.	.	32bb-
8D	8f	8b-	8ff
8D	8f	8b-	8ff
8r	8r	8r	16bb-
.	.	.	32aa
.	.	.	32bb-
=16	=16	=16	=16
8r	8r	8r	8ff
8C	8g	8b-	8ee
8C	8g	8b-	8ee
4C	4g	4b-	4ee
8r	8r	8r	16ddd
.	.	.	16ccc
=17	=17	=17	=17
8r	8r	8r	16bb-
.	.	.	16aa
8AA	8f	8cc	16gg
.	.	.	16ff
8AA	8f	8cc	16ee
.	.	.	16ff
4AA	4f	4cc	4ee-
8r	8r	8r	8f
=18	=18	=18	=18
2.r	4r	2.r	8b-
.	.	.	8b-
.	4B-	.	16b-
.	.	.	32a
.	.	.	32b-
.	.	.	8cc
.	8A	.	8r
.	8F	.	8f
=19	=19	=19	=19
2.r	8B-	4r	8dd
.	8r	.	8dd
.	16B-	4b-	16dd
.	32A	.	32cc
.	32B-	.	32dd
.	8c	.	8ee-
.	8r	8a	8r
.	16c	[8cc	16ee-
.	32B-	.	32dd
.	32c	.	32ee-
=20	=20	=20	=20
4r	8d	8cc]	8ff
.	8r	8b-	8r
8BB-	4B-	4dd	16ff
.	.	.	32ee-
.	.	.	32ff
8E-	.	.	[4.gg
8E-	8c	8cc	.
16E-	8c	8b-	.
32D	.	.	.
32E-	.	.	.
=21	=21	=21	=21
[2.F	4.c	4.a	8gg]
.	.	.	8ff
.	.	.	8ee-
.	4.d	[4.b-	8dd
.	.	.	8ff
.	.	.	8bb-
=22	=22	=22	=22
2.F_	8d-	8b-]	4.ee
.	8c	8cc	.
.	8B-	8dd-	.
.	8A	8cc	[4.ee-
.	8B-	8b-	.
.	8c	8a	.
=23	=23	=23	=23
2.F_	2B-	4b-	8ee-]
.	.	.	8dd
.	.	8f	4dd-
.	.	4.e	.
.	8c	.	8cc
.	8d-	.	8b-
=24	=24	=24	=24
4F]	4c	4f	16a
.	.	.	16ff
.	.	.	16ee
.	.	.	16ff
2r	2r	2r	16ee
.	.	.	16ff
.	.	.	16ee
.	.	.	16ff
.	.	.	16gg
.	.	.	16ff
.	.	.	16ee
.	.	.	16ff
=25	=25	=25	=25
8r	8r	8r	16ee
.	.	.	16ff
8AA	8F	8c 8f	16ee-
.	.	.	16cc
8AA	8F	8f 8c	16a
.	.	.	16f
8r	8r	8r	16cc
.	.	.	16a
8AA	8f	8e- 8c	16f
.	.	.	16e-
8AA	8f	8e- 8c	16c
.	.	.	16A
=26	=26	=26	=26
8r	8r	8r	16B-
.	.	.	16f
8BB-	8f	8B- 8d	16d
.	.	.	16b-
8BB-	8f	8B- 8d	16f
.	.	.	16dd
8r	8r	8r	16b-
.	.	.	16ff
8BB-	8d	8f 8d	16dd
.	.	.	16bb-
8BB-	8d	8f 8d	16aa
.	.	.	16gg
=27	=27	=27	=27
8r	8r	8r	16ee
.	.	.	16ff
8AA	8F	8c 8f	16ee-
.	.	.	16cc
8AA	8F	8f 8c	16a
.	.	.	16f
8r	8r	8r	16cc
.	.	.	16a
8AA	8f	8e- 8c	16f
.	.	.	16e-
8AA	8f	8e- 8c	16c
.	.	.	16A
=28	=28	=28	=28
8r	8r	8r	16B-
.	.	.	16f
8BB-	8f	8d	16d
.	.	.	16b-
8BB-	8f	8d	16f
.	.	.	16dd
8r	8r	8r	16b-
.	.	.	16ff
8D	8f	8b-	16dd
.	.	.	16bb-
8D	8f	8b-	16aa-
.	.	.	16ff
=29	=29	=29	=29
4E-	4B-	4b-	16ff#
.	.	.	16gg
.	.	.	16ff#
.	.	.	16gg
2r	8r	8r	16ff#
.	.	.	16gg
.	4e-	4g	16aa
.	.	.	16bb-
.	.	.	16aa
.	.	.	16bb-
.	8r	8r	16aa
.	.	.	16bb-
=30	=30	=30	=30
4D	4B-	4b-	16ee
.	.	.	16ff
.	.	.	16ee
.	.	.	16ff
2r	8r	8r	16ee
.	.	.	16ff
.	4d	4f	16aa
.	.	.	16bb-
.	.	.	16aa
.	.	.	16bb-
.	8r	8r	16aa
.	.	.	16bb-
=31	=31	=31	=31
4E-	4B-	4g	32ff#
.	.	.	16.gg
.	.	.	32aa
.	.	.	16.bb-
2r	2r	2r	32ff#
.	.	.	16.gg
.	.	.	32aa
.	.	.	16.bb-
.	.	.	32ff#
.	.	.	16.gg
.	.	.	32aa
.	.	.	16.bb-
=32	=32	=32	=32
2.E-	2.G	2.c	32ff#
.	.	.	16.gg
.	.	.	32ee
.	.	.	16.ff
.	.	.	32dd
.	.	.	16.ee-
.	.	.	32cc#
.	.	.	16.dd
.	.	.	32b
.	.	.	16.cc
.	.	.	32ee-
.	.	.	16.cc
=33	=33	=33	=33
8F	8B-	8d	4.b-
8F	8d	8f	.
8F	8B-	8d	.
8F	8A	8e-	4.cc
8F	8c	8c	.
8F	8e-	8A	.
=34	=34	=34	=34
4G	4d	4B-	8b-
.	.	.	16r
.	.	.	16bb-
8r	8r	8r	16bb-
.	.	.	16bb-
8.g	8.dd-	8.ee	8bb-
.	.	.	16ee
16g	16dd-	16ee	16bb-
16g	16dd-	16ee	16bb-
16g	16dd-	16ee	16bb-
=35	=35	=35	=35
8.f	8.dd	8.ff	8bb-
.	.	.	16ff
16f	16dd	16ff	16bb-
16f	16dd	16ff	16bb-
16f	16dd	16ff	16bb-
8.e	8.dd-	8.gg	8bb-
.	.	.	16gg
16e	16dd-	16gg	16bb-
16e	16dd-	16gg	16bb-
16e	16dd-	16gg	16bb-
=36	=36	=36	=36
4f	4dd	4ff	16bb-
.	.	.	16ff
.	.	.	16ddd
.	.	.	16ccc
2r	2r	2r	16bb-
.	.	.	16aa
.	.	.	16bb-
.	.	.	16aa
.	.	.	16gg
.	.	.	16ff
.	.	.	16ee-
.	.	.	16dd
=37	=37	=37	=37
8e-	8f	8a	8cc
8e-	8f	8a	8cc
8e-	8f	8a	16cc
.	.	.	32b
.	.	.	32cc
8e-	8f	8a	8ff
4r	4r	4r	4r
=38	=38	=38	=38
8e-	8f	8a	8cc
8e-	8f	8a	8cc
8e-	8f	8a	16cc
.	.	.	32b
.	.	.	32cc
8e-	8f	8a	8ff
8r	8r	8r	8r
8e-	8f	8a	16cc
.	.	.	32b
.	.	.	32cc
=39	=39	=39	=39
8e-	8f	8a	8ff
8r	8r	8r	8r
8e-	8f	8a	16cc
.	.	.	32b
.	.	.	32cc
8d	8f	8b-	8ff
8r	8r	8r	8r
8G	8g	8d	16b-
.	.	.	32a
.	.	.	32b-
=40	=40	=40	=40
8E-	8c	8g	8ee-
8E-	8c	8g	8ee-
8F	8a	16e-	16cc
.	.	32d	32b-
.	.	32e-	32cc
4BB-	8b-	8d	8b-
.	8r	8r	8dd
8r	8dd	8ff	8ff
=41	=41	=41	=41
4F	8cc	8ee-	8ff
.	8cc	8ee-	8gg
8r	16cc	16ee-	8aa
.	32b-	32dd	.
.	32cc	32ee-	.
4BB-	8b-	8dd	8bb-
.	8r	8r	8ddd
8r	8f	8dd	8fff
=42	=42	=42	=42
4F	8e-	8cc	8ff
.	8e-	8cc	8gg
8r	16e-	16cc	8aa
.	32d	32b-	.
.	32e-	32cc	.
16BB-	8d	8b-	8bb-
16D	.	.	.
16F	8r	8r	8r
16B-	.	.	.
16d	8d	8f	8ff
16B-	.	.	.
=43	=43	=43	=43
4F	8c	8e-	8ff
.	8c	8e-	8gg
8r	16c	16e-	8aa
.	32B-	32d	.
.	32c	32e-	.
4B-	8B-	8d	8bb-
.	8r	8r	8ddd
8r	8F	8d	8fff
=44	=44	=44	=44
4FF	8E-	8c	8fff
.	8E-	8c	8ggg
8r	16E-	16c	8aaa
.	32D	32B-	.
.	32E-	32c	.
8BB-	8D	8B-	8bbb-
8r	4r	4r	4r
8BB-	.	.	.
=45	=45	=45	=45
8A-	2.r	8d	8b-
8A-	.	8e-	8cc
16A-	.	8f	8dd
32G	.	.	.
32A-	.	.	.
8G	.	8g	8ee-
4r	.	8r	8r
.	.	8b-	8b-
=46	=46	=46	=46
8B-	2r	8ff	8aa-
8c	.	8ff	8aa-
8d	.	16ff	16aa-
.	.	32ee-	32gg
.	.	32ff	32aa-
8e-	.	8ee-	8gg
4r	8r	4r	4r
.	8G	.	.
=47	=47	=47	=47
2.r	8f	8b	8gg
.	8f	8cc	8aa
.	16f	8dd	8bb
.	32e-	.	.
.	32f	.	.
.	8e-	8ee-	8ccc
.	4r	4r	8r
.	.	.	32ccc
.	.	.	32bb
.	.	.	32ccc
.	.	.	32ddd
=48	=48	=48	=48
8A-	8c	4f#	8eee-
8A-	8c	.	8ccc
8A-	8c	16ee-	8ff#
.	.	16cc	.
8G	8d	8b	8gg
4r	8r	4r	8r
.	8c	.	8cc
=49	=49	=49	=49
2.r	8e	2.r	8ee
.	8g	.	8gg
.	8f	.	8ff
.	8d	.	8dd
.	8B	.	8b
.	8G	.	8g
=50	=50	=50	=50
2r	16F#	2r	16f#
.	16G	.	16g
.	16A	.	16a
.	16G	.	16g
.	16A	.	16a
.	16B	.	16b
.	8c	.	8cc
8r	8c	8r	8cc
8C	8c	8cc	8cc
=51	=51	=51	=51
8E	8e	8ee	8ee
8G	8g	8gg	8gg
8F	8f	8ff	8ff
8D	8d	8dd	8dd
8BB	8B	8b	8b
8GG	8G	8g	8g
=52	=52	=52	=52
16FF#	16F#	16f#	16f#
16GG	16G	16g	16g
16AA	16A	16a	16a
16GG	16G	16g	16g
16AA	16A	16a	16a
16BB	16B	16b	16b
[4.C [4.CC	8c	8cc	4cc
.	8e	8e	.
.	8g	8e	8cc
=53	=53	=53	=53
2.C_ 2.CC_	4.g	4e	16b
.	.	.	16cc
.	.	.	16dd
.	.	.	16cc
.	.	8b-	16dd
.	.	.	16ee
.	8f	8a	8ff
.	8g	8g	8ff
.	8a	8f	8ff
=54	=54	=54	=54
4.C] 4.CC]	4b-	4.e	16ff#
.	.	.	16gg
.	.	.	16aa
.	.	.	16gg
.	8g	.	16ccc
.	.	.	16bb-
4.FF	4a	8f	8aa
.	.	8a	8aa
.	8r	8a	8aa
=55	=55	=55	=55
4.C#	4r	2a	16gg#
.	.	.	16aa
.	.	.	16bb-
.	.	.	16aa
.	8A	.	16gg
.	.	.	16ee
4D	8d	.	4ff
.	8d	4r	.
[8d	16d	.	8r
.	32c#	.	.
.	32d	.	.
=56	=56	=56	=56
8d]	8e	2r	2.r
8c#	8r	.	.
8A	8A	.	.
16c	8f#	.	.
16e-	.	.	.
16d	8f#	8r	.
16c	.	.	.
16B-	16f#	8d	.
16A	32e	.	.
.	32f#	.	.
=57	=57	=57	=57
4B-	4g	8g	4r
.	.	8g	.
2r	2r	16g	4gg
.	.	32f#	.
.	.	32g	.
.	.	8a	.
.	.	8r	8ff#
.	.	8d	8dd
=58	=58	=58	=58
4r	2r	8b	16ff
.	.	.	16aa-
.	.	8b	16gg
.	.	.	16ff
8G	.	16b	16ee-
.	.	32a	16dd
.	.	32b	.
8c	.	8cc	8ee-
8c	8r	4r	4r
16c	[8cc	.	.
32B	.	.	.
32c	.	.	.
=59	=59	=59	=59
8d	8cc]	2.r	2r
8e	8b	.	.
8e	8g	.	.
8e	16b-	.	.
.	16dd-	.	.
8e	16cc	.	8r
.	16b-	.	.
16e	16a-	.	8cc
32d	16g	.	.
32e	.	.	.
=60	=60	=60	=60
4f	8a-	2.r	8ff
.	8r	.	8ff
2r	4f	.	16ff
.	.	.	32ee
.	.	.	32ff
.	.	.	8gg
.	8e	.	8r
.	8c	.	8cc
=61	=61	=61	=61
2.r	8f	4r	8aa-
.	8r	.	8aa-
.	16f	4ff	16aa-
.	32e	.	32gg
.	32f	.	32aa-
.	8g	.	8bb-
.	8r	8ee	8r
.	16g	[8gg	16bb-
.	32f	.	32aa-
.	32g	.	32bb-
=62	=62	=62	=62
4r	4a-	8gg]	2ccc
.	.	8ff	.
8F	8a	8ee-	.
8B-	4b-	8dd	.
8B-	.	8r	8bb-
16B-	8r	16dd	[8bb-
32A-	.	32cc	.
32B-	.	32dd	.
=63	=63	=63	=63
8c	2r	8ee-	8bb-]
8r	.	8r	8aa
16c	.	16ee-	8aa
32B-	.	32dd	.
32c	.	32ee-	.
8d	.	8ff	16aa-
.	.	.	16ccc
8r	8r	8r	16bb-
.	.	.	16aa-
16d	8B-	16b-	16gg
32c	.	16a-	16ff
32d	.	.	.
=64	=64	=64	=64
8e-	8e-	4g	4gg
8r	8e-	.	.
4E-	16e-	2r	2r
.	32d	.	.
.	32e-	.	.
.	8f	.	.
8D	8r	.	.
8BB-	8B-	.	.
=65	=65	=65	=65
16A-	8f	2.r	2.r
16c	.	.	.
16B-	8f	.	.
16A-	.	.	.
16G	16f	.	.
16F	32e-	.	.
.	32f	.	.
16E-	8g	.	.
16F	.	.	.
16E-	8r	.	.
16D-	.	.	.
16C	16g	.	.
16BB-	32f	.	.
.	32g	.	.
=66	=66	=66	=66
16C	8a-	4r	2.r
16D-	.	.	.
16E-	8r	.	.
16C	.	.	.
16BB-	16a-	8e-	.
16AA-	32g	.	.
.	32a-	.	.
16GG	8b-	8ee-	.
16AA-	.	.	.
16BB-	8r	8ee-	.
16GG	.	.	.
16FF	16b-	8ee-	.
16EE-	32a-	.	.
.	32b-	.	.
=67	=67	=67	=67
4AA-	4cc	16cc	4r
.	.	16dd-	.
.	.	16ee-	.
.	.	16dd-	.
8GG-	4.r	16cc	8e-
.	.	16b-	.
4FF	.	16a	8ee-
.	.	16b-	.
.	.	16cc	8ee-
.	.	16a	.
8r	8A	16g	8ee-
.	.	16f	.
=68	=68	=68	=68
2r	4B-	8dd-	16dd-
.	.	.	16ee-
.	.	8r	16ff
.	.	.	16ee-
.	8A-	8f	16dd-
.	.	.	16cc
.	4G	8ff	16b
.	.	.	16cc
8r	.	8ff	16dd
.	.	.	16b
8BB	8r	8ff	16a
.	.	.	16g
=69	=69	=69	=69
4C	4r	16ee-	4cc
.	.	16ff	.
.	.	16gg	.
.	.	16ff	.
8D	8g	16ee-	4.r
.	.	16dd	.
4E-	8cc	16cc	.
.	.	16dd	.
.	8cc	16ee-	.
.	.	16dd	.
8E	8cc	16cc	8cc
.	.	16b-	.
=70	=70	=70	=70
16F	16a-	4a-	8ff
16G	16b-	.	.
16A-	16cc	.	8ff
16G	16b-	.	.
16F	16a-	2r	16ff
16E-	16g	.	32ee
.	.	.	32ff
16D	16f	.	8aa-
16E-	16g	.	.
16F	16a-	.	8aa-
16E-	16g	.	.
16D	16f	.	8aa-
16C	16e-	.	.
=71	=71	=71	=71
4BB	4d	8d	16ff#
.	.	.	16gg
.	.	8g	16ff#
.	.	.	16gg
2r	8r	8g	16ff#
.	.	.	16gg
.	4.B	8r	16ee
.	.	.	16ff
.	.	8g	16ee
.	.	.	16ff
.	.	8g	16ee
.	.	.	16ff
=72	=72	=72	=72
2.r	4.c	8r	16dd
.	.	.	16ee-
.	.	8g	16dd
.	.	.	16ee-
.	.	8g	16dd
.	.	.	16ee-
.	4.d	8r	16cc
.	.	.	16b
.	.	8g	16cc
.	.	.	16b
.	.	8g	16cc
.	.	.	16b
=73	=73	=73	=73
2.r	4.e-	8r	16dd
.	.	.	16cc
.	.	8g	16dd
.	.	.	16cc
.	.	8g	16dd
.	.	.	16cc
.	4.B	8r	16ee-
.	.	.	16dd
.	.	8g	16ee-
.	.	.	16dd
.	.	8g	16ee-
.	.	.	16dd
=74	=74	=74	=74
2.r	4.c	8r	8ff
.	.	8g	8ee-
.	.	8g	8ee-
.	4.d	8r	8gg
.	.	8b	8ff
.	.	8b	8ff
=75	=75	=75	=75
2.r	[2e-	8r	4.aa-
.	.	8cc	.
.	.	8cc	.
.	.	4cc	4gg
.	8e-]	.	.
.	8r	8r	8ccc
=76	=76	=76	=76
8F	8A-	8B	8dd
8F	8A-	8B	8dd
8F	8A-	8B	16dd
.	.	.	32cc
.	.	.	32dd
8F	8A-	8B	8.ff
4r	4r	4r	.
.	.	.	16r
.	.	.	16dd
.	.	.	32cc
.	.	.	32dd
=77	=77	=77	=77
8F#	8A	8c	8ee-
4r	4r	4r	8r
.	.	.	16cc
.	.	.	32b
.	.	.	32cc
8F#	8A	8c	8ee-
4r	4r	4r	8r
.	.	.	16c
.	.	.	32B
.	.	.	32c
=78	=78	=78	=78
4G	4c	4e-	16G
.	.	.	16e-
.	.	.	16c
.	.	.	16g
2r	2r	2r	16e-
.	.	.	16cc
.	.	.	16g
.	.	.	16ee-
.	.	.	16cc
.	.	.	16gg
.	.	.	16ee-
.	.	.	16ccc
=79	=79	=79	=79
4.r	4.r	4.r	8gg
.	.	.	8ee-
.	.	.	8cc
8G	8g	8g	8g
8E-	8e-	8e-	8e-
8C	8c	8c	8c
=80	=80	=80	=80
4GG	4G	8G	8G
.	.	8cc	8ee-
8r	8r	8cc	8ee-
4G	4g	8r	8r
.	.	8b	8dd
8r	8r	8b	8dd
=81	=81	=81	=81
8EE-	8r	8r	8r
8EE-	8B-	8g	8dd-
8EE-	8B-	8g	8dd-
4EE-	4B-	4g	4dd-
8r	8A-	8a-	8r
=82	=82	=82	=82
2.r	8c	8cc	2.r
.	8e-	8ee-	.
.	8d-	8dd-	.
.	8B-	8b-	.
.	8G	8g	.
.	8E-	8e-	.
=83	=83	=83	=83
2.r	16D	16d	2r
.	16E-	16e-	.
.	16F	16f	.
.	16E-	16e-	.
.	16F	16f	.
.	16G	16g	.
.	8A-	8a-	.
.	8A-	8a-	8r
.	8r	8r	8cc
=84	=84	=84	=84
[2.FF	4.A- 4.f	4.f 4.c	8ff
.	.	.	8aa-
.	.	.	8ccc
.	[4.B- [4.g	[4.d- [4.e	8bb-
.	.	.	8gg
.	.	.	8ee
=85	=85	=85	=85
2FF_	8B-] 8g]	8d-] 8e]	16dd
.	.	.	16cc
.	8B- 8g	8e 8d-	16b
.	.	.	16cc
.	8B- 8g	8d- 8e	16dd
.	.	.	16ee
.	4f 4A-	8c 8f	8ff
8FF]	.	8r	8ff
8r	8r	16aa-	16ccc
.	.	16gg	16bb-
=86	=86	=86	=86
2.r	4r	8ff	8aa-
.	.	8ff	8aa-
.	16cc	4.r	16aa-
.	16b-	.	16gg
.	8a-	.	8ff
.	8a-	.	8ff
.	16f	16a-	16ff
.	16g	16g	16ee-
=87	=87	=87	=87
8B-	8a-	8f	8dd
8B-	8a-	8f	8dd
2r	2r	4.r	4.r
.	.	8e-	8ee-
=88	=88	=88	=88
2.r	2.r	8g	8gg
.	.	8b-	8bb-
.	.	8a-	8aa-
.	.	8f	8ff
.	.	8d	8dd
.	.	8B-	8b-
=89	=89	=89	=89
2r	2r	16A	16a
.	.	16B-	16b-
.	.	16c	16cc
.	.	16B-	16b-
.	.	16c	16cc
.	.	16d	16dd
.	.	8e-	8ee-
8r	8r	8g	8gg
8E-	8e-	8b-	8bb-
=90	=90	=90	=90
8G	8g	8b-	8bb-
8B-	8b-	8b-	8bb-
8A-	8a-	8b-	8bb-
8F	8f	8b-	8bb-
8D	8d	8b-	8bb-
8BB-	8B-	8b-	8bb-
=91	=91	=91	=91
8F	8f	8b-	8bb-
8A-	8a-	8b-	8bb-
8G	8g	8b-	8bb-
8E-	8e-	8b-	8bb-
8BB-	8B-	8b-	8bb-
8GG	8G	8b-	8bb-
=92	=92	=92	=92
8AA-	8A-	2.cc	8bb-
8C	8c	.	8aa-
8E	8e	.	8gg
8F	[4.f	.	8gg
8A-	.	.	8ff
8A	.	.	8ee-
=93	=93	=93	=93
4B-	4f]	4b-	16b-
.	.	.	16bb-
.	.	.	16aa
.	.	.	16bb-
2r	2r	2r	16aa
.	.	.	16bb-
.	.	.	16aa
.	.	.	16bb-
.	.	.	16aa
.	.	.	16bb-
.	.	.	16aa
.	.	.	16bb-
=94	=94	=94	=94
8r	8r	8r	16aa
.	.	.	16bb-
8D	8f	8f 8B-	16aa-
.	.	.	16ff
8D	8f	8f 8B-	16dd
.	.	.	16b-
8r	8r	8r	16a-
.	.	.	16f
8D	8f	8a- 8B-	16d
.	.	.	16B-
8D	8f	8a- 8B-	16A-
.	.	.	16B-
=95	=95	=95	=95
8r	8r	8r	16G
.	.	.	16e-
8E-	8e-	8g 8B-	16B-
.	.	.	16g
8E-	8e-	8g 8B-	16e-
.	.	.	16b-
8r	8r	8r	16g
.	.	.	16ee-
8E-	8e-	8B- 8g	16b-
.	.	.	16gg
8E-	8e-	8g 8B-	16ee-
.	.	.	16bb-
=96	=96	=96	=96
8r	8r	8r	16aa
.	.	.	16bb-
8D	8f	8f 8B-	16aa-
.	.	.	16ff
8D	8f	8f 8B-	16dd
.	.	.	16b-
8r	8r	8r	16a-
.	.	.	16f
8D	8f	8a- 8B-	16d
.	.	.	16B-
8D	8f	8a- 8B-	16A-
.	.	.	16B-
=97	=97	=97	=97
8r	8r	8r	16G
.	.	.	16e-
8E-	8e-	8B- 8g	16B-
.	.	.	16g
8E-	8e-	8B- 8g	16e-
.	.	.	16b-
8r	8r	8r	16g
.	.	.	16ee-
8E-	8e-	8B- 8g	16b-
.	.	.	16gg
8E-	8e-	8B- 8g	16ee-
.	.	.	16bb-
=98	=98	=98	=98
4AA-	4e-	4c 4a-	16b
.	.	.	16cc
.	.	.	16b
.	.	.	16cc
2r	8r	8r	16b
.	.	.	16cc
.	4A-	4c	16dd
.	.	.	16ee-
.	.	.	16dd
.	.	.	16ee-
.	8r	8r	16dd
.	.	.	16ee-
=99	=99	=99	=99
4GG	4B-	4e-	16a
.	.	.	16b-
.	.	.	16a
.	.	.	16b-
2r	8r	8r	16a
.	.	.	16b-
.	4G	4B-	16dd
.	.	.	16ee-
.	.	.	16dd
.	.	.	16ee-
.	8r	8r	16dd
.	.	.	16ee-
=100	=100	=100	=100
2.r	4A-	4e-	16b
.	.	.	16cc
.	.	.	16b
.	.	.	16cc
.	8r	8a-	16ee
.	.	.	16ff
.	4B-	4f	16cc#
.	.	.	16dd
.	.	.	16cc#
.	.	.	16dd
.	8r	8b-	16ff#
.	.	.	16gg
=101	=101	=101	=101
4.r	4c	8g	32dd
.	.	.	16.ee-
.	.	8cc	32gg
.	.	.	16.aa-
.	8d	8a-	32ee
.	.	.	16.ff
4.D	4.B-	4.f	32aa
.	.	.	16.bb-
.	.	.	32aa
.	.	.	16.bb-
.	.	.	32gg
.	.	.	16.aa-
=102	=102	=102	=102
8E-	8G	4g	32ff#
.	.	.	16.gg
8F	8A-	.	32ee
.	.	.	16.ff
8G	8B-	2r	32dd
.	.	.	16.ee-
4A-	4c	.	32b
.	.	.	16.cc
.	.	.	32ee
.	.	.	16.ff
8r	8r	.	32gg
.	.	.	16.aa-
=103	=103	=103	=103
4.r	4.r	4.r	8ccc
.	.	.	8r
.	.	.	32ccc
.	.	.	32bb
.	.	.	32ccc
.	.	.	32ddd
8A	8c	8g-	8eee-
8A	8c	8g-	8eee-
8A	8c	8g-	8eee-
=104	=104	=104	=104
8B-	8B-	8g	4.ee-
8B-	8G	8b-	.
8B-	8E-	8g	.
8BB-	8D	8a-	4.ff
8BB-	8F	8f	.
8BB-	8A-	8d	.
=105	=105	=105	=105
4C	4G	4e-	8ee-
.	.	.	16r
.	.	.	16ee-
8r	8r	8r	16ee-
.	.	.	16ee-
8.c	8.g-	8.a	8ee-
.	.	.	16a
16c	16g-	16a	16ee-
16c	16g-	16a	16ee-
16c	16g-	16a	16ee-
=106	=106	=106	=106
8.B-	8.g	8.b-	8ee-
.	.	.	16b-
16B-	16g	16b-	16ee-
16B-	16g	16b-	16ee-
16B-	16g	16b-	16ee-
8.A	8.g-	8.cc	8ee-
.	.	.	16cc
16A	16g-	16cc	16ee-
16A	16g-	16cc	16ee-
16A	16g-	16cc	16ee-
=107	=107	=107	=107
4B-	4g	4b-	16ee-
.	.	.	16dd
.	.	.	16gg
.	.	.	16ff
2r	2r	2r	16ee-
.	.	.	16dd
.	.	.	16ee-
.	.	.	16dd
.	.	.	16cc
.	.	.	16b-
.	.	.	16a-
.	.	.	16g
=108	=108	=108	=108
8A-	8B-	8d	8f
8A-	8B-	8d	8f
8A-	8B-	8d	16f
.	.	.	32e
.	.	.	32f
8A-	8B-	8d	8cc
4r	4r	4r	4r
=109	=109	=109	=109
2.r	8a-	8dd	8ff
.	8a-	8dd	8ff
.	8a-	8dd	16ff
.	.	.	32ee
.	.	.	32ff
.	8a-	8dd	8ccc
.	8r	8r	8r
.	8a-	8dd	16ff
.	.	.	32ee
.	.	.	32ff
=110	=110	=110	=110
2r	8a-	8dd	8ccc
.	8r	8r	8r
.	8a-	8dd	16ff
.	.	.	32ee
.	.	.	32ff
.	8g	8ee-	8bb-
8r	4r	8r	8r
8c	.	8g	16ee-
.	.	.	32dd
.	.	.	32ee-
=111	=111	=111	=111
8A-	8f	8cc	8aa-
8A-	8f	8cc	8aa-
8B-	8dd	16a-	16ff
.	.	32g	32ee-
.	.	32a-	32ff
8E-	8ee-	8g	8ee-
4r	4r	4r	4r
=112	=112	=112	=112
2.r	2.r	2.r	2.r
=113	=113	=113	=113
2.r	2.r	2.r	2r
.	.	.	8r
.	.	.	8B-
=114	=114	=114	=114
4E-	4B-	4G 4e-	8e-
.	.	.	8e-
8r	8r	8r	16e-
.	.	.	32d
.	.	.	32e-
4BB-	4B-	4d	8f
.	.	.	8r
8r	8r	8r	8B-
=115	=115	=115	=115
4BB-	4B-	4d	8f
.	.	.	8f
8r	8r	8r	16f
.	.	.	32e-
.	.	.	32f
4E-	4B-	4e-	8g
.	.	.	8r
8r	8r	8r	16g
.	.	.	32f
.	.	.	32g
=116	=116	=116	=116
4F	4f	4d	8a-
.	.	.	8r
8r	8r	8r	16a-
.	.	.	32g
.	.	.	32a-
4G	4e-	4B-	8b-
.	.	.	8r
8r	8r	8r	8ee-
=117	=117	=117	=117
8G	8e-	8e-	8b-
8G	8e-	8e-	8b-
8G	8e-	8e-	8b-
8G	8e-	8e-	8b-
4r	4r	4r	8r
.	.	.	16dd
.	.	.	16ee-
=118	=118	=118	=118
8A-	8e-	8e-	8b
8A-	8e-	8e-	8b
8A-	8e-	8e-	8b
8A-	8e-	8e-	8b
4r	4r	4r	8r
.	.	.	16b
.	.	.	16cc
=119	=119	=119	=119
4A	4c	4e-	8f
.	.	.	8f
8r	8r	8r	16b
.	.	.	16cc
4A	4c	4e-	8g-
.	.	.	8g-
8r	8r	8r	16dd
.	.	.	16ee-
=120	=120	=120	=120
4B-	4e-	4e-	8g
.	.	.	8g
8r	8r	8r	16dd
.	.	.	16ee-
4B-	4e-	4g	8b-
.	.	.	8b-
8r	8r	8r	16dd
.	.	.	16ee-
=121	=121	=121	=121
4B-	4e-	4e-	8gg
.	.	.	8gg
2r	2r	2r	4.r
.	.	.	16dd
.	.	.	16ee-
=122	=122	=122	=122
4B-	8r	8r	8gg
.	8e-	8g	8bb-
8r	8f	8a-	8aa-
4B-	8r	8r	8ff
.	8d	8f	8dd
8r	8f	8a-	8b-
=123	=123	=123	=123
4B-	8r	8r	16a
.	.	.	16b-
.	8d	8f	16cc
.	.	.	16b-
8r	8f	8a-	16cc
.	.	.	16dd
8E-	8e-	8g	8ee-
8r	8r	8r	8ee-
8E-	8e-	8e-	8ee-
=124	=124	=124	=124
8G	8g	8g	8gg
8B-	8b-	8b-	8bb-
8A-	8a-	8a-	8aa-
8F	8f	8f	8ff
8D	8d	8d	8dd
8BB-	8B-	8B-	8b-
=125	=125	=125	=125
16AA	16A	16A	16a
16BB-	16B-	16B-	16b-
16C	16c	16c	16cc
16BB-	16B-	16B-	16b-
16C	16c	16c	16cc
16D	16d	16d	16dd
16BB	16B	16B	16b
16C	16c	16c	16cc
16D	16d	16d	16dd
16C	16c	16c	16cc
16D	16d	16d	16dd
16E-	16e-	16e-	16ee-
=126	=126	=126	=126
16D	16d	16d	16dd
16E-	16e-	16e-	16ee-
16F	16f	16f	16ff
16E-	16e-	16e-	16ee-
16F	16f	16f	16ff
16G	16g	16g	16gg
16F	16f	16f	16ff
16G	16g	16g	16gg
16A-	16a-	16a-	16aa-
16G	16g	16g	16gg
16A-	16a-	16a-	16aa-
16B-	16b-	16b-	16bb-
=127	=127	=127	=127
16A-	16a-	16a-	16aa-
16B-	16b-	16b-	16bb-
16c	16cc	16cc	16ccc
16B-	16b-	16b-	16bb-
16A-	16a-	16a-	16aa-
16G	16g	16g	16gg
16F	16f	16f	16ff
16E-	16e-	16e-	16ee-
16D	16d	16d	16dd
16C	16c	16c	16cc
16BB-	16B-	16B-	16b-
16AA-	16A-	16A-	16a-
=128	=128	=128	=128
8GG	8G	8G	8g
8r	8r	8r	8r
8C	8c	8g	8ee-
8AA-	8c	8a-	8ff
8BB-	8B-	8g	8ee-
8BB-	8A-	8f	8dd
=129	=129	=129	=129
4E-	8G	8e-	8ee-
.	8r	8r	8gg
8r	8g	8bb-	8bb-
4B-	8f	8aa-	8b-
.	8f	8aa-	8cc
8r	16f	16aa-	8dd
.	32e-	32gg	.
.	32f	32aa-	.
=130	=130	=130	=130
4E-	8e-	8gg	8ee-
.	8r	8r	8gg
8r	8b-	8gg	8bb-
4B-	8a-	8ff	8b-
.	8a-	8ff	8cc
8r	16a-	16ff	8dd
.	32g	32ee-	.
.	32a-	32ff	.
=131	=131	=131	=131
16EE-	8g	8ee-	8ee-
16GG	.	.	.
16BB-	8r	8r	8r
16E-	.	.	.
16G	8g	8b-	8b-
16E-	.	.	.
4BB-	8f	8a-	8b-
.	8f	8a-	8cc
8r	16f	16a-	8dd
.	32e-	32g	.
.	32f	32a-	.
=132	=132	=132	=132
4EE-	8e-	8g	8ee-
.	8r	8r	8gg
8r	8B-	8g	8bb-
4BB-	8A-	8f	8bb-
.	8A-	8f	8ccc
8r	16A-	16f	8ddd
.	32G	32e-	.
.	32A-	32f	.
=133	=133	=133	=133
4EE-	4G	4e-	8eee-
.	.	.	2r
2r	2r	2r	.
.	.	.	8r
==	==	==	==
*-	*-	*-	*-
!!!RWG1: This file contains only pitch and duration data.
!!!RWG2: Transposing instruments are not transposed.
!!!RWG3: Spines may have incompatible meters.
!!!RWG4: Durations of rests and tied notes may be interpreted.
!!!RWG: Key is interpreted using the Humdrum key tool.
!!!GTL: 6 Quartetti ("Prussian")
!!!AFT: stage1
!!!END: 1997/04/15
!!!KEY: 428748958
!!!EMD: Converted from MuseData to Humdrum Dec 16, 2000, by Andreas Kornstaedt using muse2kern.
!!!EMD: Manual editing by Craig Sapp, Nov 2001
